!!!!SEGMENT: pl-kk--kk-i-315--009_palestrina-giovanni-pierluigi-da--tota-pulchra-es-amica-mea.krn
!!!cenid: 16xx:1105
!!!COM: Palestrina, Giovanni Pierluigi da
!!!COM-rismID: pe1904
!!!CDT: ~1525-1594/02/02
!!!CNT: Italian
!!!OTL: Tota pulchra es amica mea
!!!PDT:
!!!AGN: Sacred
!!!SMS-siglum: PL-Kk
!!!SMS-shelfmark: Kk.I.315
!!!SMS-shelfwork: 009 W
!!!SMS-variant:
!!!SMS-altvar:
!!!NIFC-rismSourceID: 1001146826
!!!NIFC-islandoraID: pl-kk:5289
!!!URL-pdf-islandora: https://repozytorium.nifc.pl/islandora/object/pl-kk%3A5289/datastream/PDF/view
!!!URL-scan: https://polish.musicsources.pl/pl/lokalizacje/galeria/rekopisy/5934 @EN{Scan on Polish Music Sources Website} @PL{Skany w portalu Dziedzictwo Muzyki Polskiej w otwartym dostępie}
!!!ONB-nifc: UWAGA: motety w zbiorze: 1. Osculetur me, 2. Trahe me post curremus, 3. Nigra sum sed formosa, 4. Vineam meam, 5. Si ignoras te o pulchra, 6. Pulchrae sunt genae tuae, 7. Fasciculus myrrhae, 8. Ecce tu pulcher es, 9. Tota pulchra es amica mea, 10. Vulnerasti cor meum, 11. Sicut lilium inter spinas, 12. Introduxit me rex, 13. Laeva ejus, 14. Vox dilecti mei
!!!AIN: 1 alto
!!!key:
**kern	**text
*Ialto	*
*I"[Alto]	*
*I'[A]	*
*clefC2	*
*k[b-]	*
*g:dor	*
*M2/1	*
*met(C|)	*
=1-	=1-
!LO:TX:t=P:problem=all\middle&colon; global	!
!LO:TX:t=P:znaki:problem= w źródle znaki przykluczowe b- B-	!
00r	.
=2-	=2-
.	.
=3-	=3-
1.d	To-
!LO:TX:t=P:problem=2/middle or right&colon; global	!
2d/	-ta
=4-	=4-
!LO:TX:t=P:problem=2\middle or right&colon; global	!
2f\	pul-
2g\	-chra
2a\	es
2a\	a-
=5-	=5-
1b-	-mi-
2g\	-ca
1b-\	me-
=6-	=6-
.	.
!LO:TX:t=P:problem=4\middle or left&colon; global	!
4a\	.
4g\	.
4f\	.
4g\	.
4a\	.
4f\	.
!LO:LB:g=original	!
=7-	=7-
2g\	.
2.a\	.
4g\	.
1g\	.
=8-	=8-
.	.
2f\	.
2g,<\	-a
2g\	a-
=9-	=9-
1b-	-mi-
2b-\	-ca
2.a\	me-
=10-	=10-
.	.
4g\	.
4f\	.
4e/	.
2.d/	.
4e/	.
=11-	=11-
2.f\	.
4g\	.
!LO:LB:g=original	!
2a\	.
2b-\	.
=12-	=12-
1a	-a
0r	.
=13-	=13-
1r	.
=14-	=14-
2rd	.
2b-\	et
2.a\	ma-
4g\	-cu-
=15-	=15-
2f,<\	-la
2d/	non
2e/	est
2c/	in
=16-	=16-
1.d	te
2c/	non
!LO:LB:g=original	!
=17-	=17-
2c/	est
2B-/	in
4c/	te
4d/	.
4e\	.
4f\	.
=18-	=18-
2g,<\	.
2a\	non
2f\	est
2e/	in
=19-	=19-
0f	te
=20-	=20-
0rb	.
=21-	=21-
1rb	.
2rd	.
2g\	ve-
=22-	=22-
2a\	-ni
!LO:TX:t=P:problem=kreska pseudotaktowa	!
2cc\	de
!LO:LB:g=original	!
2.b-\	Li-
4a\	-ba-
=23-	=23-
1g	-no
2a\	Spon-
2f\	-sa
=24-	=24-
1g	me-
1a	-a
=25-	=25-
2rd	.
2a\	ve-
2f\	-ni
2g\	de
=26-	=26-
2.e/	Li-
4e/	-ba-
2d,</	-no
!LO:PB:g=original	!
1b-\	Spon-
=27-	=27-
.	.
1a	-sa
2.g\	me-
=28-	=28-
.	.
!LO:N:vis=16	!
8f/L	.
!LO:N:vis=16	!
8e/J	.
2f\	.
2g,<\	-a
2d/	ve-
=29-	=29-
2f\	-ni
2g\	de
2.f\	Li-
4f\	-ba-
=30-	=30-
1e	-no
2r	.
!LO:TX:t=P:problem=kreska pseudotaktowa	!
2g\	ve-
!LO:LB:g=original	!
=31-	=31-
2a\	-ni
1cc	co-
2b-\	-ro-
=32-	=32-
2a\	-na-
2g\	-be-
2f,<\	-ris
2a\	de
=33-	=33-
2.cc\	ca-
4cc\	-pi-
2cc\	-te
1f\	a-
=34-	=34-
.	.
2g\	-ma-
1a	-na
=35-	=35-
2r	.
!LO:TX:t=P:problem=kreska pseudotaktowa	!
2dd\	ve-
!LO:LB:g=original	!
2cc\	-ni
1b-\	co-
=36-	=36-
.	.
2a\	-ro-
2g\	-na-
2f\	-be-
=37-	=37-
2e,</	-ris
2a\	de
2.a\	Ca-
4a\	-pi-
=38-	=38-
2a\	-te
1b-	A-
2g\	-ma-
=39-	=39-
*custos:a	*
2f\	-na
!LO:LB:g=original	!
2a\	de
2.cc\	ver-
4cc\	-ti-
=40-	=40-
2cc\	-ce
2f\	sa-
2a,<\	-nit
2b-\	et
=41-	=41-
1b-	he-
1a	-mum
=42-	=42-
2rd	.
1a	de
2a\	cu-
=43-	=43-
2g\	-bi-
*custos:d	*
2f\	-li-
!LO:LB:g=original	!
2d,</	-bus
2e/	le-
=44-	=44-
1g	-o-
1c,<	-num
=45-	=45-
1cc	de
2b-\	cu-
2.a\	-bi-
=46-	=46-
.	.
4a\	-li-
2a,<\	-bus
4g\	le-
4f\	-o-
!LO:N:vis=8	!
4f\L	.
!LO:N:vis=16	!
8e\	.
!LO:N:vis=16	!
8d\J	.
=47-	=47-
1e	.
2f\	.
2b-\	.
!LO:LB:g=original	!
=48-	=48-
1a	-num
1r	.
=49-	=49-
2r	.
2A/	de
2.a\	mon-
4a\	-ti-
=50-	=50-
2a,<\	-bus
2a\	par-
0b-	-do-
=51-	=51-
.	.
2g,<\	-ru(m)
2g\	de
=52-	=52-
1.b-	mon-
2g\	-ti-
=53-	=53-
2a\	-bus
2a\	par-
!LO:LB:g=original	!
1.cc	-do-
=54-	=54-
.	.
2a\	.
1a	-rum
=55-	=55-
2rd	.
2d/	de
2.g\	mon-
4g\	-ti-
=56-	=56-
2g,<\	-bus
2f#X\	par-
2a\	-do-
1g\	.
=57-	=57-
.	.
4f#X\	.
4e\	.
1f#X	.
=58-	=58-
00g	-rum
==	==
*-	*-
!!!RDF**kern: l = terminal long
!!!RDF**kern: > = above
!!!RDF**kern: < = below
!!!EED: Antoni Szymański
!!!EEV: 2021-03-28
!!!ENC: Katarzyna Serwa
!!!END: 2021-03-18
!!!YEC: Copyright 2022 Narodowy Instytut Fryderyka Chopina (https://polishscores.org)
!!!YEM: Licence CC BY 4.0 (https://creativecommons.org/licenses/by/4.0)
